; generated by PrusaSlicer 2.4.1+win64 on 2022-04-08 at 18:05:53 UTC

; 

; external perimeters extrusion width = 0.60mm
; perimeters extrusion width = 0.50mm
; infill extrusion width = 0.50mm
; solid infill extrusion width = 0.50mm
; top infill extrusion width = 0.45mm
; first layer extrusion width = 0.42mm

M73 P0 R72
M73 Q0 S73
M201 X1000 Y1000 Z200 E5000 ; sets maximum accelerations, mm/sec^2
M203 X200 Y200 Z12 E120 ; sets maximum feedrates, mm / sec
M204 P1250 R1250 T1250 ; sets acceleration (P, T) and retract acceleration (R), mm/sec^2
M205 X8.00 Y8.00 Z0.40 E4.50 ; sets the jerk limits, mm/sec
M205 S0 T0 ; sets the minimum extruding and travel feed rate, mm/sec
M107
;TYPE:Custom
M862.3 P "MK3S" ; printer model check
M862.1 P0.4 ; nozzle diameter check
M115 U3.10.1 ; tell printer latest fw version
G90 ; use absolute coordinates
M83 ; extruder relative mode
M104 S230 ; set extruder temp
M140 S85 ; set bed temp
M190 S85 ; wait for bed temp
M109 S230 ; wait for extruder temp
G28 W ; home all without mesh bed level
G80 ; mesh bed leveling
G1 Z0.2 F720
G1 Y-3 F1000 ; go outside print area
G92 E0
G1 X60 E9 F1000 ; intro line
G1 X100 E12.5 F1000 ; intro line
G92 E0
M221 S95

; Don't change E values below. Excessive value can damage the printer.

M907 E538 ; set extruder motor current
G21 ; set units to millimeters
G90 ; use absolute coordinates
M83 ; use relative distances for extrusion
M900 K0.08 ; Filament gcode LA 1.5
M900 K45 ; Filament gcode LA 1.0
M107
;LAYER_CHANGE
;Z:0.2
;HEIGHT:0.2
;BEFORE_LAYER_CHANGE
G92 E0.0
;0.2


G1 E-1 F2100
G1 Z.2 F720
;AFTER_LAYER_CHANGE
;0.2
G1 Z.4
G1 X54.539 Y56.818 F10800
G1 Z.2 F720
G1 E1 F2100
M204 S800
;TYPE:Skirt/Brim
;WIDTH:0.42
G1 F1200
G1 X55.542 Y56.254 E.03606
G1 X56.028 Y56.097 E.01602
G1 X56.99 Y55.973 E.03039
G1 X136.99 Y55.623 E2.50837
G1 X193.194 Y55.631 E1.76225
G1 X194.081 Y55.762 E.02811
G1 X195 Y56.117 E.03088
G1 X195.625 Y56.501 E.023
G1 X196.228 Y57.051 E.0256
G1 X196.619 Y57.567 E.02028
G1 X197.164 Y58.665 E.03845
G1 X197.377 Y60 E.04238
G1 X197.377 Y145 E2.66511
G1 X197.177 Y146.284 E.04074
G1 X196.883 Y147.01 E.02456
G1 X196.34 Y147.821 E.03061
G1 X195.41 Y148.644 E.03893
G1 X194.55 Y149.077 E.03019
G1 X193.988 Y149.249 E.01845
G1 X193.145 Y149.373 E.0267
G1 X110.621 Y154.374 E2.59223
G1 X58.879 Y154.374 E1.62234
G1 X57.919 Y154.238 E.03041
G1 X56.791 Y153.776 E.03819
G1 X56.048 Y153.227 E.02898
G1 X55.469 Y152.58 E.02725
G1 X54.842 Y151.363 E.04291
G1 X53.153 Y146.173 E.17112
G1 X52.973 Y145 E.03722
G1 X52.973 Y60 E2.66512
G1 X53.076 Y59.127 E.02755
G1 X53.397 Y58.21 E.03046
G1 X53.85 Y57.5 E.02644
G1 X54.497 Y56.86 E.02851
M204 S1000
; printing object LEDRqspberryPiBox.stl id:0 copy 0
;WIPE_START
G1 F8640
G1 X55.542 Y56.254 E-.27898
G1 X56.028 Y56.097 E-.118
G1 X56.99 Y55.973 E-.2238
G1 X58.415 Y55.967 E-.32922
;WIPE_END
G1 E-.05 F2100
G1 Z.4 F720
G1 X95.59 Y127.59 F10800
G1 Z.2 F720
G1 E1 F2100
M204 S800
;TYPE:External perimeter
G1 F1200
G1 X111.41 Y127.59 E.49602
G1 X111.41 Y147.41 E.62144
G1 X95.59 Y147.41 E.49602
G1 X95.59 Y127.65 E.61956
M204 S1000
G1 X95.501 Y127.2 F10800
;WIPE_START
G1 F8640
G1 X99.704 Y127.634 E-.95
;WIPE_END
G1 E-.05 F2100
G1 Z.4 F720
G1 X76.41 Y124.09 F10800
G1 Z.2 F720
M73 Q0 S72
G1 E1 F2100
M204 S800
G1 F1200
G1 X76.41 Y147.41 E.73118
G1 X58.09 Y147.41 E.57441
G1 X58.09 Y124.09 E.73118
G1 X76.35 Y124.09 E.57253
M204 S1000
G1 X76.792 Y123.971 F10800
;WIPE_START
G1 F8640
G1 X76.361 Y128.204 E-.95
;WIPE_END
G1 E-.05 F2100
G1 Z.4 F720
G1 X80.91 Y105.91 F10800
G1 Z.2 F720
G1 E1 F2100
M204 S800
G1 F1200
G1 X57.998 Y105.909 E.71839
G1 X57.486 Y105.899 E.01604
G1 X56.961 Y105.841 E.01657
G1 X56.29 Y105.661 E.02178
G1 X56.29 Y102.839 E.0885
G1 X56.961 Y102.659 E.02178
G1 X57.487 Y102.601 E.0166
G1 X58.499 Y102.59 E.03172
G1 X80.91 Y102.59 E.70269
G1 X80.91 Y105.85 E.10222
M204 S1000
G1 X81.093 Y106.266 F10800
;WIPE_START
G1 F8640
G1 X76.796 Y105.861 E-.95
;WIPE_END
G1 E-.05 F2100
G1 Z.4 F720
G1 X72.59 Y65.91 F10800
G1 Z.2 F720
M73 P1 R72
M73 Q1 S72
G1 E1 F2100
M204 S800
G1 F1200
G1 X72.59 Y62.59 E.1041
G1 X97.411 Y62.59 E.77826
G1 X97.399 Y64.512 E.06027
G1 X97.341 Y65.039 E.01661
G1 X97.161 Y65.71 E.02178
G1 X95.524 Y65.71 E.05132
G1 X95.037 Y65.824 E.01569
G1 X94.515 Y65.889 E.01649
G1 X93.502 Y65.91 E.03177
G1 X72.65 Y65.91 E.6538
M204 S1000
G1 X72.19 Y65.91 F10800
;WIPE_START
G1 F8640
G1 X72.59 Y62.59 E-.76672
G1 X73.384 Y62.59 E-.18328
;WIPE_END
G1 E-.05 F2100
G1 Z.4 F720
G1 X95.836 Y65.787 F10800
G1 Z.2 F720
M73 P1 R71
G1 E1 F2100
M204 S800
G1 F1200
G1 X97.404 Y65.787 E.04917
G1 X97.866 Y65.689 E.01479
G1 X98.358 Y65.618 E.01561
G1 X98.85 Y65.592 E.01542
G1 X111.502 Y65.59 E.39671
G1 X112.507 Y65.606 E.03151
G1 X113.361 Y65.649 E.02682
G1 X113.361 Y119.351 E1.6838
G1 X112.507 Y119.394 E.02682
G1 X111.502 Y119.41 E.03151
G1 X95.587 Y119.412 E.49901
G1 X95.598 Y66.976 E1.6441
G1 X95.656 Y66.453 E.0165
G1 X95.821 Y65.845 E.01975
M204 S1000
G1 X95.863 Y65.388 F10800
;WIPE_START
G1 F8640
G1 X97.404 Y65.787 E-.36593
G1 X97.866 Y65.689 E-.10895
G1 X98.358 Y65.618 E-.11496
G1 X98.85 Y65.592 E-.11354
G1 X99.918 Y65.592 E-.24662
;WIPE_END
G1 E-.05 F2100
G1 Z.4 F720
G1 X94.287 Y127.213 F10800
G1 Z.2 F720
G1 E1 F2100
M204 S800
;TYPE:Perimeter
G1 F1200
G1 X94.287 Y147.787 E.64509
G1 X77.713 Y147.787 E.51967
G1 X77.713 Y127.213 E.64509
G1 X94.227 Y127.213 E.51779
M204 S1000
G1 X93.91 Y127.59 F10800
M204 S800
;TYPE:External perimeter
G1 F1200
G1 X93.91 Y147.41 E.62144
G1 X78.09 Y147.41 E.49602
G1 X78.09 Y127.59 E.62144
G1 X93.85 Y127.59 E.49414
M204 S1000
G1 X94.292 Y127.472 F10800
;WIPE_START
G1 F8640
G1 X93.862 Y131.704 E-.95
;WIPE_END
G1 E-.05 F2100
G1 Z.4 F720
G1 X111.787 Y145.324 F10800
G1 Z.2 F720
G1 E1 F2100
M204 S800
;TYPE:Perimeter
G1 F1200
G1 X111.787 Y127.213 E.56786
G1 X95.213 Y127.213 E.51967
G1 X95.213 Y147.787 E.64509
G1 X111.713 Y147.787 E.51735
G1 X111.713 Y149.961 E.06815
G1 X111.677 Y150.266 E.00963
G1 X111.606 Y150.48 E.00706
G1 X111.439 Y150.759 E.01023
G1 X111.197 Y150.988 E.01043
G1 X111.047 Y151.078 E.00549
G1 X110.871 Y151.149 E.00595
G1 X110.593 Y151.207 E.0089
G1 X110.48 Y151.213 E.00354
G1 X59.025 Y151.213 E1.61332
G1 X58.652 Y151.158 E.01185
G1 X58.437 Y151.069 E.0073
G1 X58.209 Y150.908 E.00875
G1 X58.042 Y150.736 E.00752
G1 X57.955 Y150.607 E.00486
G1 X57.853 Y150.376 E.00793
G1 X57.803 Y150.164 E.00683
G1 X57.787 Y149.971 E.00607
G1 X57.787 Y147.787 E.06847
G1 X76.787 Y147.787 E.59573
G1 X76.787 Y123.713 E.75483
G1 X57.713 Y123.713 E.59806
G1 X57.713 Y145.454 E.68167
G1 X56.864 Y145.27 E.02722
G1 X56.795 Y145.227 E.00256
G1 X56.725 Y145.133 E.00367
G1 X56.687 Y144.933 E.00639
G1 X56.687 Y107.716 E1.16693
G1 X56.68 Y107.198 E.01624
G1 X56.642 Y106.658 E.01696
G1 X56.557 Y106.123 E.017
G1 X56.891 Y106.212 E.01086
G1 X57.462 Y106.276 E.01799
G1 X57.994 Y106.286 E.0167
G1 X81.287 Y106.287 E.73034
G1 X81.287 Y102.213 E.12774
G1 X58.497 Y102.213 E.71457
G1 X57.464 Y102.224 E.03238
G1 X56.891 Y102.288 E.01808
G1 X56.555 Y102.378 E.01092
G1 X56.645 Y101.821 E.01769
G1 X56.68 Y101.28 E.01698
G1 X56.687 Y100.764 E.0162
G1 X56.687 Y60.065 E1.27607
G1 X56.722 Y59.872 E.00615
G1 X56.8 Y59.769 E.00405
G1 X56.874 Y59.721 E.00278
G1 X57.032 Y59.687 E.00506
G1 X112.968 Y59.697 E1.75383
G1 X113.147 Y59.736 E.00573
G1 X113.262 Y59.839 E.00485
G1 X113.313 Y60.067 E.00734
G1 X113.329 Y65.27 E.16312
G1 X112.519 Y65.229 E.0254
G1 X111.505 Y65.213 E.0318
G1 X98.839 Y65.215 E.39715
G1 X98.321 Y65.242 E.01624
G1 X97.648 Y65.35 E.02139
G1 X97.712 Y65.109 E.00782
G1 X97.776 Y64.534 E.01812
G1 X97.791 Y62.213 E.07279
G1 X72.213 Y62.213 E.80198
G1 X72.213 Y66.287 E.12774
G1 X93.506 Y66.287 E.66763
G1 X94.542 Y66.266 E.0325
M73 P2 R71
M73 Q2 S72
G1 X95.104 Y66.196 E.01774
G1 X95.351 Y66.138 E.00796
G1 X95.285 Y66.383 E.00794
G1 X95.221 Y66.955 E.01806
G1 X95.21 Y119.789 E1.65658
G1 X111.505 Y119.787 E.51093
G1 X112.519 Y119.771 E.03181
G1 X113.335 Y119.73 E.02561
G1 X113.313 Y120.636 E.02842
G1 X113.313 Y144.935 E.76186
G1 X113.26 Y145.163 E.00734
G1 X113.204 Y145.228 E.00272
G1 X113.127 Y145.277 E.00285
G1 X113.03 Y145.305 E.00316
G1 X111.847 Y145.323 E.03709
M204 S1000
G1 X112.09 Y145.696 F10800
M204 S800
;TYPE:External perimeter
G1 F1200
G1 X112.09 Y149.983 E.1344
G1 X112.047 Y150.348 E.01153
G1 X111.951 Y150.638 E.00958
G1 X111.743 Y150.985 E.01271
G1 X111.593 Y151.15 E.00699
G1 X111.415 Y151.297 E.00724
G1 X111.215 Y151.417 E.00731
G1 X110.98 Y151.511 E.00793
G1 X110.642 Y151.582 E.01086
G1 X59.012 Y151.59 E1.6188
G1 X58.812 Y151.576 E.00631
M73 Q2 S71
G1 X58.541 Y151.521 E.00867
G1 X58.253 Y151.401 E.00977
G1 X57.963 Y151.195 E.01114
G1 X57.748 Y150.975 E.00967
G1 X57.624 Y150.79 E.00698
G1 X57.494 Y150.497 E.01006
G1 X57.429 Y150.223 E.00882
G1 X57.41 Y149.986 E.00743
G1 X57.41 Y145.774 E.13207
G1 X56.721 Y145.625 E.02211
G1 X56.547 Y145.517 E.00641
G1 X56.422 Y145.372 E.00601
G1 X56.363 Y145.254 E.00411
G1 X56.31 Y144.968 E.00914
G1 X56.31 Y107.718 E1.16794
G1 X56.303 Y107.213 E.01582
G1 X56.267 Y106.701 E.0161
G1 X56.11 Y105.714 E.03133
G1 X56.11 Y102.765 E.09246
G1 X56.269 Y101.778 E.03136
G1 X56.303 Y101.266 E.01611
G1 X56.31 Y100.762 E.01581
G1 X56.31 Y60.032 E1.27706
G1 X56.36 Y59.755 E.00881
G1 X56.416 Y59.639 E.00405
G1 X56.549 Y59.482 E.00644
G1 X56.716 Y59.375 E.00623
G1 X56.907 Y59.318 E.00624
G1 X57.018 Y59.31 E.00348
G1 X113.009 Y59.32 E1.75555
G1 X113.292 Y59.381 E.00908
G1 X113.452 Y59.483 E.00596
G1 X113.578 Y59.628 E.00603
G1 X113.637 Y59.746 E.00411
G1 X113.69 Y60.032 E.00914
G1 X113.693 Y64.976 E.155
G1 X113.738 Y65.97 E.0312
G1 X113.739 Y118.652 E1.65183
G1 X113.69 Y120.641 E.06236
G1 X113.69 Y144.968 E.76278
G1 X113.64 Y145.244 E.00879
M73 P2 R70
G1 X113.578 Y145.372 E.00447
G1 X113.452 Y145.517 E.00601
G1 X113.283 Y145.624 E.00628
G1 X113.086 Y145.681 E.00642
G1 X112.15 Y145.695 E.02935
M204 S1000
G1 X111.69 Y145.704 F10800
G1 X111.75 Y145.513
M204 S800
;TYPE:Gap fill
;WIDTH:0.345842
G1 F1200
G1 X111.75 Y147.599 E.05253
M204 S1000
;WIPE_START
G1 F8640
G1 X111.75 Y145.513 E-.48156
;WIPE_END
G1 E-.51844 F2100
G1 Z.4 F720
G1 X57.75 Y147.599 F10800
G1 Z.2 F720
G1 E1 F2100
M204 S800
G1 F1200
G1 X57.75 Y145.655 E.04896
M204 S1000
;WIPE_START
G1 F8640
G1 X57.75 Y147.599 E-.4488
;WIPE_END
G1 E-.5512 F2100
G1 Z.4 F720
G1 X113.202 Y60.703 F10800
G1 Z.2 F720
G1 E1 F2100
M204 S800
;TYPE:Solid infill
;WIDTH:0.420729
G1 F1200
G1 X112.478 Y59.98 E.03215
G1 X111.944 Y59.98 E.01679
G1 X113.033 Y61.069 E.0484
G1 X113.035 Y61.605 E.01684
G1 X111.409 Y59.98 E.07221
G1 X110.875 Y59.979 E.01679
G1 X113.036 Y62.141 E.09603
G1 X113.038 Y62.677 E.01684
G1 X110.341 Y59.979 E.11984
G1 X109.806 Y59.979 E.01679
G1 X113.04 Y63.213 E.14365
G1 X113.041 Y63.749 E.01684
G1 X109.272 Y59.979 E.16747
G1 X108.737 Y59.979 E.01679
G1 X113.043 Y64.285 E.19128
G1 X113.044 Y64.821 E.01684
G1 X108.203 Y59.979 E.2151
G1 X107.669 Y59.979 E.01679
G1 X112.642 Y64.952 E.22095
G1 X112.095 Y64.94 E.01718
G1 X107.134 Y59.979 E.2204
G1 X106.6 Y59.979 E.01679
G1 X111.552 Y64.931 E.22002
G1 X111.017 Y64.93 E.01681
G1 X106.065 Y59.979 E.21999
G1 X105.531 Y59.979 E.01679
G1 X110.483 Y64.93 E.22
G1 X109.949 Y64.93 E.01678
G1 X104.997 Y59.978 E.22001
G1 X104.462 Y59.978 E.01679
G1 X109.414 Y64.931 E.22001
G1 X108.88 Y64.931 E.01678
G1 X103.928 Y59.978 E.22002
G1 X103.393 Y59.978 E.01679
G1 X108.346 Y64.931 E.22003
G1 X107.812 Y64.931 E.01678
G1 X102.859 Y59.978 E.22004
G1 X102.325 Y59.978 E.01679
G1 X107.277 Y64.931 E.22004
G1 X106.743 Y64.931 E.01678
G1 X101.79 Y59.978 E.22005
G1 X101.256 Y59.978 E.01679
G1 X106.209 Y64.931 E.22006
G1 X105.675 Y64.931 E.01678
G1 X100.721 Y59.978 E.22006
G1 X100.187 Y59.978 E.01679
G1 X105.14 Y64.931 E.22007
G1 X104.606 Y64.931 E.01678
G1 X99.653 Y59.977 E.22008
G1 X99.118 Y59.977 E.01679
G1 X104.072 Y64.931 E.22008
G1 X103.538 Y64.931 E.01678
G1 X98.584 Y59.977 E.22009
G1 X98.049 Y59.977 E.01679
G1 X103.004 Y64.931 E.2201
G1 X102.469 Y64.931 E.01678
G1 X97.515 Y59.977 E.22011
G1 X96.981 Y59.977 E.01679
G1 X101.935 Y64.931 E.22011
G1 X101.401 Y64.932 E.01678
G1 X96.446 Y59.977 E.22012
G1 X95.912 Y59.977 E.01679
G1 X100.867 Y64.932 E.22013
G1 X100.332 Y64.932 E.01678
G1 X98.071 Y62.67 E.10048
G1 X98.067 Y63.201 E.01668
G1 X99.798 Y64.932 E.07689
G1 X99.264 Y64.932 E.01678
G1 X98.064 Y63.732 E.05331
G1 X98.061 Y64.263 E.01668
G1 X98.735 Y64.937 E.02995
G1 X98.233 Y64.97 E.01579
G1 X97.881 Y64.617 E.01566
M204 S1000
;WIPE_START
G1 F8640
G1 X98.233 Y64.97 E-.11509
G1 X98.735 Y64.937 E-.11606
G1 X98.061 Y64.263 E-.22013
G1 X98.064 Y63.732 E-.1226
G1 X99.216 Y64.884 E-.37612
;WIPE_END
G1 E-.05 F2100
G1 Z.4 F720
G1 X97.501 Y62.1 F10800
G1 Z.2 F720
G1 E1 F2100
M204 S800
G1 F1200
G1 X95.377 Y59.977 E.09432
G1 X94.843 Y59.977 E.01679
G1 X96.797 Y61.93 E.08679
G1 X96.262 Y61.93 E.01679
G1 X94.309 Y59.977 E.08679
G1 X93.774 Y59.976 E.01679
G1 X95.728 Y61.93 E.0868
G1 X95.194 Y61.93 E.01679
G1 X93.24 Y59.976 E.0868
G1 X92.705 Y59.976 E.01679
G1 X94.659 Y61.93 E.08681
G1 X94.125 Y61.93 E.01679
G1 X92.171 Y59.976 E.08681
G1 X91.637 Y59.976 E.01679
G1 X93.591 Y61.93 E.08681
G1 X93.056 Y61.93 E.01679
G1 X91.102 Y59.976 E.08682
G1 X90.568 Y59.976 E.01679
G1 X92.522 Y61.93 E.08682
G1 X91.988 Y61.93 E.01679
G1 X90.033 Y59.976 E.08683
G1 X89.499 Y59.976 E.01679
G1 X91.454 Y61.93 E.08683
G1 X90.919 Y61.93 E.01679
G1 X88.965 Y59.976 E.08684
G1 X88.43 Y59.975 E.01679
G1 X90.385 Y61.93 E.08684
G1 X89.851 Y61.93 E.01679
G1 X87.896 Y59.975 E.08684
G1 X87.361 Y59.975 E.01679
G1 X89.316 Y61.93 E.08685
G1 X88.782 Y61.93 E.01679
G1 X86.827 Y59.975 E.08685
G1 X86.293 Y59.975 E.01679
G1 X88.248 Y61.93 E.08686
G1 X87.713 Y61.93 E.01679
G1 X85.758 Y59.975 E.08686
G1 X85.224 Y59.975 E.01679
G1 X87.179 Y61.93 E.08687
G1 X86.645 Y61.93 E.01679
G1 X84.689 Y59.975 E.08687
G1 X84.155 Y59.975 E.01679
G1 X86.11 Y61.93 E.08687
G1 X85.576 Y61.93 E.01679
G1 X83.621 Y59.975 E.08688
G1 X83.086 Y59.975 E.01679
G1 X85.042 Y61.93 E.08688
G1 X84.508 Y61.93 E.01679
G1 X82.552 Y59.974 E.08689
G1 X82.017 Y59.974 E.01679
G1 X83.973 Y61.93 E.08689
G1 X83.439 Y61.93 E.01679
G1 X81.483 Y59.974 E.0869
G1 X80.949 Y59.974 E.01679
G1 X82.905 Y61.93 E.0869
G1 X82.37 Y61.93 E.01679
G1 X80.414 Y59.974 E.0869
G1 X79.88 Y59.974 E.01679
G1 X81.836 Y61.93 E.08691
G1 X81.302 Y61.93 E.01679
G1 X79.345 Y59.974 E.08691
G1 X78.811 Y59.974 E.01679
G1 X80.767 Y61.93 E.08692
G1 X80.233 Y61.93 E.01679
G1 X78.277 Y59.974 E.08692
G1 X77.742 Y59.974 E.01679
G1 X79.699 Y61.93 E.08693
G1 X79.165 Y61.93 E.01679
G1 X77.208 Y59.973 E.08693
G1 X76.674 Y59.973 E.01679
G1 X78.63 Y61.93 E.08693
G1 X78.096 Y61.93 E.01679
G1 X76.139 Y59.973 E.08694
G1 X75.605 Y59.973 E.01679
G1 X77.562 Y61.93 E.08694
G1 X77.027 Y61.93 E.01679
G1 X75.07 Y59.973 E.08695
G1 X74.536 Y59.973 E.01679
G1 X76.493 Y61.93 E.08695
G1 X75.959 Y61.93 E.01679
G1 X74.002 Y59.973 E.08695
G1 X73.467 Y59.973 E.01679
G1 X75.424 Y61.93 E.08696
G1 X74.89 Y61.93 E.01679
G1 X72.933 Y59.973 E.08696
G1 X72.398 Y59.973 E.01679
G1 X74.356 Y61.93 E.08697
G1 X73.822 Y61.93 E.01679
G1 X71.864 Y59.973 E.08697
G1 X71.33 Y59.972 E.01679
G1 X73.287 Y61.93 E.08698
G1 X72.753 Y61.93 E.01679
G1 X70.795 Y59.972 E.08698
G1 X70.261 Y59.972 E.01679
G1 X72.219 Y61.93 E.08698
G1 X71.93 Y61.93 E.00906
G1 X71.93 Y62.176 E.00772
G1 X69.726 Y59.972 E.09791
G1 X69.192 Y59.972 E.01679
G1 X71.93 Y62.71 E.12165
G1 X71.93 Y63.245 E.01679
G1 X68.658 Y59.972 E.14539
G1 X68.123 Y59.972 E.01679
M73 P3 R70
G1 X71.93 Y63.779 E.16914
G1 X71.93 Y64.313 E.01679
M73 Q3 S71
G1 X67.589 Y59.972 E.19288
G1 X67.054 Y59.972 E.01679
G1 X71.93 Y64.847 E.21662
G1 X71.93 Y65.382 E.01679
G1 X66.52 Y59.972 E.24036
G1 X65.986 Y59.971 E.01679
G1 X72.1 Y66.086 E.27164
M204 S1000
;WIPE_START
G1 F8640
G1 X69.191 Y63.177 E-.95
;WIPE_END
G1 E-.05 F2100
G1 Z.4 F720
G1 X94.802 Y66.348 F10800
G1 Z.2 F720
G1 E1 F2100
M204 S800
G1 F1200
G1 X94.984 Y66.529 E.00806
G1 X94.938 Y67.017 E.01541
G1 X94.471 Y66.55 E.02075
G1 X93.947 Y66.561 E.01646
G1 X94.938 Y67.552 E.04402
G1 X94.938 Y68.086 E.01678
G1 X93.422 Y66.57 E.06736
G1 X92.887 Y66.57 E.01678
G1 X94.938 Y68.62 E.09109
G1 X94.937 Y69.154 E.01678
