; generated by PrusaSlicer 2.4.1+win64 on 2022-04-11 at 15:43:16 UTC

; 

; external perimeters extrusion width = 0.45mm
; perimeters extrusion width = 0.45mm
; infill extrusion width = 0.45mm
; solid infill extrusion width = 0.45mm
; top infill extrusion width = 0.40mm
; first layer extrusion width = 0.42mm

; external perimeters extrusion width = 0.45mm
; perimeters extrusion width = 0.45mm
; infill extrusion width = 0.45mm
; solid infill extrusion width = 0.45mm
; top infill extrusion width = 0.40mm
; first layer extrusion width = 0.42mm

; external perimeters extrusion width = 0.45mm
; perimeters extrusion width = 0.45mm
; infill extrusion width = 0.45mm
; solid infill extrusion width = 0.45mm
; top infill extrusion width = 0.40mm
; first layer extrusion width = 0.42mm

M73 P0 R203
M73 Q0 S206
M201 X1000 Y1000 Z200 E5000 ; sets maximum accelerations, mm/sec^2
M203 X200 Y200 Z12 E120 ; sets maximum feedrates, mm / sec
M204 P1250 R1250 T1250 ; sets acceleration (P, T) and retract acceleration (R), mm/sec^2
M205 X8.00 Y8.00 Z0.40 E4.50 ; sets the jerk limits, mm/sec
M205 S0 T0 ; sets the minimum extruding and travel feed rate, mm/sec
M107
;TYPE:Custom
M862.3 P "MK3S" ; printer model check
M862.1 P0.4 ; nozzle diameter check
M115 U3.10.1 ; tell printer latest fw version
G90 ; use absolute coordinates
M83 ; extruder relative mode
M104 S230 ; set extruder temp
M140 S85 ; set bed temp
M190 S85 ; wait for bed temp
M109 S230 ; wait for extruder temp
G28 W ; home all without mesh bed level
G80 ; mesh bed leveling
G1 Z0.2 F720
G1 Y-3 F1000 ; go outside print area
G92 E0
G1 X60 E9 F1000 ; intro line
G1 X100 E12.5 F1000 ; intro line
G92 E0
M221 S95

; Don't change E values below. Excessive value can damage the printer.
M907 E430 ; set extruder motor current
G21 ; set units to millimeters
G90 ; use absolute coordinates
M83 ; use relative distances for extrusion
M900 K0.08 ; Filament gcode LA 1.5
M900 K45 ; Filament gcode LA 1.0
M107
;LAYER_CHANGE
;Z:0.2
;HEIGHT:0.2
;BEFORE_LAYER_CHANGE
G92 E0.0
;0.2


M73 Q0 S205
G1 E-1 F2100
G1 Z.2 F720
;AFTER_LAYER_CHANGE
;0.2
G1 Z.4
G1 X42.183 Y51.235 F10800
G1 Z.2 F720
G1 E1 F2100
M204 S800
;TYPE:Skirt/Brim
;WIDTH:0.42
G1 F1200
G1 X43.914 Y50.488 E.0591
G1 X200.963 Y50.488 E4.92416
G1 X202.27 Y50.879 E.04278
M73 P0 R202
G1 X203.293 Y52.396 E.05735
G1 X211.34 Y92.595 E1.28542
G1 X211.308 Y114.981 E.70191
G1 X204.313 Y157.46 E1.34983
G1 X203.714 Y158.686 E.04278
G1 X201.968 Y159.451 E.05979
G1 X40.968 Y159.451 E5.04804
G1 X39.661 Y159.059 E.04278
G1 X38.784 Y158.013 E.04278
G1 X38.601 Y157.297 E.02319
G1 X34.596 Y114.818 E1.3378
G1 X34.586 Y92.595 E.69679
G1 X41.572 Y52.455 E1.27747
G1 X42.156 Y51.289 E.0409
M204 S1000
; printing object LEDMatrixSupport3Pieces.stl_2 id:1 copy 0
;WIPE_START
G1 F8640
G1 X43.914 Y50.488 E-.44596
G1 X46.097 Y50.488 E-.50404
;WIPE_END
G1 E-.05 F2100
G1 Z.4 F720
G1 X41.755 Y136.131 F10800
G1 Z.2 F720
G1 E1 F2100
M204 S800
;TYPE:Perimeter
G1 F1200
G1 X201.181 Y136.131 E4.99869
G1 X201.181 Y156.287 E.63197
G1 X41.755 Y156.287 E4.99869
G1 X41.755 Y136.191 E.63009
M204 S1000
G1 X41.378 Y135.754 F10800
M204 S800
;TYPE:External perimeter
G1 F1200
G1 X201.558 Y135.754 E5.02233
G1 X201.558 Y156.664 E.65562
G1 X41.378 Y156.664 E5.02233
M73 Q0 S204
G1 X41.378 Y135.814 E.65374
M204 S1000
G1 X41.777 Y135.771 F10800
;WIPE_START
G1 F8640
G1 X45.492 Y135.812 E-.95
;WIPE_END
G1 E-.05 F2100
G1 Z.4 F720
G1 X200.305 Y136.244 F10800
G1 Z.2 F720
G1 E1 F2100
M204 S800
;TYPE:Solid infill
;WIDTH:0.420053
G1 F1200
G1 X200.898 Y136.836 E.02628
G1 X200.898 Y137.37 E.01673
G1 X199.941 Y136.413 E.04241
G1 X199.408 Y136.413 E.01673
G1 X200.898 Y137.903 E.06607
G1 X200.898 Y138.437 E.01673
G1 X198.875 Y136.413 E.08972
G1 X198.341 Y136.413 E.01673
G1 X200.898 Y138.97 E.11337
G1 X200.898 Y139.503 E.01673
M73 P0 R201
G1 X197.808 Y136.413 E.13702
G1 X197.275 Y136.413 E.01673
G1 X200.898 Y140.037 E.16068
G1 X200.898 Y140.57 E.01673
G1 X196.741 Y136.413 E.18433
G1 X196.208 Y136.413 E.01673
G1 X200.898 Y141.103 E.20798
G1 X200.898 Y141.637 E.01673
G1 X195.675 Y136.413 E.23164
G1 X195.141 Y136.413 E.01673
G1 X200.898 Y142.17 E.25529
G1 X200.898 Y142.703 E.01673
G1 X194.608 Y136.413 E.27894
G1 X194.075 Y136.413 E.01673
G1 X200.898 Y143.237 E.30259
G1 X200.898 Y143.77 E.01673
G1 X193.541 Y136.413 E.32625
G1 X193.008 Y136.413 E.01673
G1 X200.898 Y144.303 E.3499
G1 X200.898 Y144.837 E.01673
G1 X192.475 Y136.413 E.37355
G1 X191.941 Y136.413 E.01673
G1 X200.898 Y145.37 E.39721
G1 X200.898 Y145.903 E.01673
G1 X191.408 Y136.413 E.42086
G1 X190.875 Y136.413 E.01673
G1 X200.898 Y146.437 E.44451
G1 X200.898 Y146.97 E.01673
G1 X190.341 Y136.413 E.46816
G1 X189.808 Y136.413 E.01673
G1 X200.898 Y147.503 E.49182
G1 X200.898 Y148.037 E.01673
G1 X189.274 Y136.413 E.51547
G1 X188.741 Y136.413 E.01673
G1 X200.898 Y148.57 E.53912
G1 X200.898 Y149.103 E.01673
G1 X188.208 Y136.413 E.56277
G1 X187.674 Y136.413 E.01673
G1 X200.898 Y149.637 E.58643
G1 X200.898 Y150.17 E.01673
G1 X187.141 Y136.413 E.61008
G1 X186.608 Y136.413 E.01673
G1 X200.898 Y150.703 E.63373
G1 X200.898 Y151.237 E.01673
G1 X186.074 Y136.413 E.65739
G1 X185.541 Y136.413 E.01673
G1 X200.898 Y151.77 E.68104
G1 X200.898 Y152.304 E.01673
G1 X185.008 Y136.413 E.70469
G1 X184.474 Y136.413 E.01673
G1 X200.898 Y152.837 E.72834
G1 X200.898 Y153.37 E.01673
G1 X183.941 Y136.413 E.752
G1 X183.408 Y136.413 E.01673
G1 X200.898 Y153.904 E.77565
G1 X200.898 Y154.437 E.01673
G1 X182.874 Y136.413 E.7993
G1 X182.341 Y136.413 E.01673
G1 X200.898 Y154.97 E.82296
G1 X200.898 Y155.504 E.01673
G1 X181.808 Y136.413 E.84661
G1 X181.274 Y136.413 E.01673
G1 X200.865 Y156.004 E.86879
G1 X200.331 Y156.004 E.01673
G1 X180.741 Y136.413 E.86879
G1 X180.208 Y136.413 E.01673
G1 X199.798 Y156.004 E.86879
G1 X199.264 Y156.004 E.01673
G1 X179.674 Y136.413 E.86879
G1 X179.141 Y136.413 E.01673
G1 X198.731 Y156.004 E.86879
G1 X198.198 Y156.004 E.01673
G1 X178.608 Y136.413 E.86879
G1 X178.074 Y136.413 E.01673
G1 X197.664 Y156.004 E.86879
G1 X197.131 Y156.004 E.01673
G1 X177.541 Y136.413 E.86879
G1 X177.007 Y136.413 E.01673
G1 X196.598 Y156.004 E.86879
G1 X196.064 Y156.004 E.01673
G1 X176.474 Y136.413 E.86879
G1 X175.941 Y136.413 E.01673
G1 X195.531 Y156.004 E.86879
G1 X194.998 Y156.004 E.01673
G1 X175.407 Y136.413 E.86879
G1 X174.874 Y136.413 E.01673
G1 X194.464 Y156.004 E.86879
G1 X193.931 Y156.004 E.01673
G1 X174.341 Y136.413 E.86879
G1 X173.807 Y136.413 E.01673
G1 X193.398 Y156.004 E.86879
G1 X192.864 Y156.004 E.01673
G1 X173.274 Y136.413 E.86879
G1 X172.741 Y136.413 E.01673
M73 Q0 S203
G1 X192.331 Y156.004 E.86879
G1 X191.798 Y156.004 E.01673
M73 P1 R201
M73 Q1 S203
G1 X172.207 Y136.413 E.86879
G1 X171.674 Y136.413 E.01673
G1 X191.264 Y156.004 E.86879
G1 X190.731 Y156.004 E.01673
G1 X171.141 Y136.413 E.86879
G1 X170.607 Y136.413 E.01673
G1 X190.198 Y156.004 E.86879
G1 X189.664 Y156.004 E.01673
G1 X170.074 Y136.413 E.86879
G1 X169.541 Y136.413 E.01673
G1 X189.131 Y156.004 E.86879
G1 X188.598 Y156.004 E.01673
G1 X169.007 Y136.413 E.86879
G1 X168.474 Y136.413 E.01673
G1 X188.064 Y156.004 E.86879
G1 X187.531 Y156.004 E.01673
M73 P1 R200
G1 X167.941 Y136.413 E.86879
G1 X167.407 Y136.413 E.01673
G1 X186.998 Y156.004 E.86879
G1 X186.464 Y156.004 E.01673
G1 X166.874 Y136.413 E.86879
G1 X166.341 Y136.413 E.01673
G1 X185.931 Y156.004 E.86879
G1 X185.397 Y156.004 E.01673
G1 X165.807 Y136.413 E.86879
G1 X165.274 Y136.413 E.01673
G1 X184.864 Y156.004 E.86879
G1 X184.331 Y156.004 E.01673
G1 X164.741 Y136.413 E.86879
G1 X164.207 Y136.413 E.01673
G1 X183.797 Y156.004 E.86879
G1 X183.264 Y156.004 E.01673
G1 X163.674 Y136.413 E.86879
G1 X163.14 Y136.413 E.01673
G1 X182.731 Y156.004 E.86879
G1 X182.197 Y156.004 E.01673
G1 X162.607 Y136.413 E.86879
G1 X162.074 Y136.413 E.01673
G1 X181.664 Y156.004 E.86879
G1 X181.131 Y156.004 E.01673
G1 X161.54 Y136.413 E.86879
G1 X161.007 Y136.413 E.01673
G1 X180.597 Y156.004 E.86879
G1 X180.064 Y156.004 E.01673
G1 X160.474 Y136.413 E.86879
G1 X159.94 Y136.413 E.01673
G1 X179.531 Y156.004 E.86879
G1 X178.997 Y156.004 E.01673
G1 X159.407 Y136.413 E.86879
G1 X158.874 Y136.413 E.01673
G1 X178.464 Y156.004 E.86879
G1 X177.931 Y156.004 E.01673
G1 X158.34 Y136.413 E.86879
G1 X157.807 Y136.413 E.01673
G1 X177.397 Y156.004 E.86879
G1 X176.864 Y156.004 E.01673
G1 X157.274 Y136.413 E.86879
G1 X156.74 Y136.413 E.01673
G1 X176.331 Y156.004 E.86879
G1 X175.797 Y156.004 E.01673
G1 X156.207 Y136.413 E.86879
G1 X155.674 Y136.413 E.01673
G1 X175.264 Y156.004 E.86879
G1 X174.731 Y156.004 E.01673
G1 X155.14 Y136.413 E.86879
G1 X154.607 Y136.413 E.01673
G1 X174.197 Y156.004 E.86879
G1 X173.664 Y156.004 E.01673
G1 X154.074 Y136.413 E.86879
G1 X153.54 Y136.413 E.01673
G1 X173.13 Y156.004 E.86879
G1 X172.597 Y156.004 E.01673
G1 X153.007 Y136.413 E.86879
G1 X152.474 Y136.413 E.01673
G1 X172.064 Y156.004 E.86879
G1 X171.53 Y156.004 E.01673
G1 X151.94 Y136.413 E.86879
G1 X151.407 Y136.413 E.01673
G1 X170.997 Y156.004 E.86879
G1 X170.464 Y156.004 E.01673
G1 X150.874 Y136.413 E.86879
G1 X150.34 Y136.413 E.01673
M73 Q1 S202
G1 X169.93 Y156.004 E.86879
G1 X169.397 Y156.004 E.01673
G1 X149.807 Y136.413 E.86879
G1 X149.273 Y136.413 E.01673
G1 X168.864 Y156.004 E.86879
G1 X168.33 Y156.004 E.01673
G1 X148.74 Y136.413 E.86879
G1 X148.207 Y136.413 E.01673
G1 X167.797 Y156.004 E.86879
G1 X167.264 Y156.004 E.01673
G1 X147.673 Y136.413 E.86879
G1 X147.14 Y136.413 E.01673
G1 X166.73 Y156.004 E.86879
G1 X166.197 Y156.004 E.01673
G1 X146.607 Y136.413 E.86879
G1 X146.073 Y136.413 E.01673
G1 X165.664 Y156.004 E.86879
G1 X165.13 Y156.004 E.01673
M73 P1 R199
G1 X145.54 Y136.413 E.86879
G1 X145.007 Y136.413 E.01673
G1 X164.597 Y156.004 E.86879
G1 X164.064 Y156.004 E.01673
G1 X144.473 Y136.413 E.86879
G1 X143.94 Y136.413 E.01673
G1 X163.53 Y156.004 E.86879
G1 X162.997 Y156.004 E.01673
G1 X143.407 Y136.413 E.86879
G1 X142.873 Y136.413 E.01673
G1 X162.464 Y156.004 E.86879
G1 X161.93 Y156.004 E.01673
G1 X142.34 Y136.413 E.86879
G1 X141.807 Y136.413 E.01673
G1 X161.397 Y156.004 E.86879
G1 X160.864 Y156.004 E.01673
G1 X141.273 Y136.413 E.86879
G1 X140.74 Y136.413 E.01673
G1 X160.33 Y156.004 E.86879
G1 X159.797 Y156.004 E.01673
G1 X140.207 Y136.413 E.86879
G1 X139.673 Y136.413 E.01673
G1 X159.263 Y156.004 E.86879
G1 X158.73 Y156.004 E.01673
G1 X139.14 Y136.413 E.86879
G1 X138.607 Y136.413 E.01673
G1 X158.197 Y156.004 E.86879
G1 X157.663 Y156.004 E.01673
G1 X138.073 Y136.413 E.86879
G1 X137.54 Y136.413 E.01673
G1 X157.13 Y156.004 E.86879
G1 X156.597 Y156.004 E.01673
G1 X137.007 Y136.413 E.86879
G1 X136.473 Y136.413 E.01673
G1 X156.063 Y156.004 E.86879
G1 X155.53 Y156.004 E.01673
G1 X135.94 Y136.413 E.86879
G1 X135.406 Y136.413 E.01673
G1 X154.997 Y156.004 E.86879
G1 X154.463 Y156.004 E.01673
G1 X134.873 Y136.413 E.86879
G1 X134.34 Y136.413 E.01673
G1 X153.93 Y156.004 E.86879
G1 X153.397 Y156.004 E.01673
G1 X133.806 Y136.413 E.86879
G1 X133.273 Y136.413 E.01673
G1 X152.863 Y156.004 E.86879
G1 X152.33 Y156.004 E.01673
G1 X132.74 Y136.413 E.86879
G1 X132.206 Y136.413 E.01673
G1 X151.797 Y156.004 E.86879
G1 X151.263 Y156.004 E.01673
G1 X131.673 Y136.413 E.86879
G1 X131.14 Y136.413 E.01673
G1 X150.73 Y156.004 E.86879
G1 X150.197 Y156.004 E.01673
G1 X130.606 Y136.413 E.86879
G1 X130.073 Y136.413 E.01673
G1 X149.663 Y156.004 E.86879
G1 X149.13 Y156.004 E.01673
G1 X129.54 Y136.413 E.86879
G1 X129.006 Y136.413 E.01673
G1 X148.597 Y156.004 E.86879
G1 X148.063 Y156.004 E.01673
G1 X128.473 Y136.413 E.86879
G1 X127.94 Y136.413 E.01673
M73 Q1 S201
G1 X147.53 Y156.004 E.86879
G1 X146.997 Y156.004 E.01673
G1 X127.406 Y136.413 E.86879
G1 X126.873 Y136.413 E.01673
M73 P2 R199
G1 X146.463 Y156.004 E.86879
G1 X145.93 Y156.004 E.01673
G1 X126.34 Y136.413 E.86879
G1 X125.806 Y136.413 E.01673
M73 Q2 S201
G1 X145.396 Y156.004 E.86879
G1 X144.863 Y156.004 E.01673
G1 X125.273 Y136.413 E.86879
G1 X124.74 Y136.413 E.01673
G1 X144.33 Y156.004 E.86879
G1 X143.796 Y156.004 E.01673
G1 X124.206 Y136.413 E.86879
G1 X123.673 Y136.413 E.01673
G1 X143.263 Y156.004 E.86879
G1 X142.73 Y156.004 E.01673
M73 P2 R198
G1 X123.139 Y136.413 E.86879
G1 X122.606 Y136.413 E.01673
G1 X142.196 Y156.004 E.86879
G1 X141.663 Y156.004 E.01673
G1 X122.073 Y136.413 E.86879
G1 X121.539 Y136.413 E.01673
G1 X141.13 Y156.004 E.86879
G1 X140.596 Y156.004 E.01673
G1 X121.006 Y136.413 E.86879
G1 X120.473 Y136.413 E.01673
G1 X140.063 Y156.004 E.86879
G1 X139.53 Y156.004 E.01673
G1 X119.939 Y136.413 E.86879
G1 X119.406 Y136.413 E.01673
G1 X138.996 Y156.004 E.86879
G1 X138.463 Y156.004 E.01673
G1 X118.873 Y136.413 E.86879
G1 X118.339 Y136.413 E.01673
G1 X137.93 Y156.004 E.86879
G1 X137.396 Y156.004 E.01673
G1 X117.806 Y136.413 E.86879
G1 X117.273 Y136.413 E.01673
G1 X136.863 Y156.004 E.86879
G1 X136.33 Y156.004 E.01673
G1 X116.739 Y136.413 E.86879
G1 X116.206 Y136.413 E.01673
G1 X135.796 Y156.004 E.86879
G1 X135.263 Y156.004 E.01673
G1 X115.673 Y136.413 E.86879
G1 X115.139 Y136.413 E.01673
G1 X134.73 Y156.004 E.86879
G1 X134.196 Y156.004 E.01673
G1 X114.606 Y136.413 E.86879
G1 X114.073 Y136.413 E.01673
G1 X133.663 Y156.004 E.86879
G1 X133.129 Y156.004 E.01673
G1 X113.539 Y136.413 E.86879
G1 X113.006 Y136.413 E.01673
G1 X132.596 Y156.004 E.86879
G1 X132.063 Y156.004 E.01673
G1 X112.473 Y136.413 E.86879
G1 X111.939 Y136.413 E.01673
G1 X131.529 Y156.004 E.86879
G1 X130.996 Y156.004 E.01673
G1 X111.406 Y136.413 E.86879
G1 X110.873 Y136.413 E.01673
G1 X130.463 Y156.004 E.86879
G1 X129.929 Y156.004 E.01673
G1 X110.339 Y136.413 E.86879
G1 X109.806 Y136.413 E.01673
G1 X129.396 Y156.004 E.86879
G1 X128.863 Y156.004 E.01673
G1 X109.272 Y136.413 E.86879
G1 X108.739 Y136.413 E.01673
G1 X128.329 Y156.004 E.86879
G1 X127.796 Y156.004 E.01673
G1 X108.206 Y136.413 E.86879
G1 X107.672 Y136.413 E.01673
G1 X127.263 Y156.004 E.86879
G1 X126.729 Y156.004 E.01673
G1 X107.139 Y136.413 E.86879
G1 X106.606 Y136.413 E.01673
G1 X126.196 Y156.004 E.86879
G1 X125.663 Y156.004 E.01673
G1 X106.072 Y136.413 E.86879
G1 X105.539 Y136.413 E.01673
M73 Q2 S200
G1 X125.129 Y156.004 E.86879
G1 X124.596 Y156.004 E.01673
G1 X105.006 Y136.413 E.86879
G1 X104.472 Y136.413 E.01673
G1 X124.063 Y156.004 E.86879
G1 X123.529 Y156.004 E.01673
G1 X103.939 Y136.413 E.86879
G1 X103.406 Y136.413 E.01673
G1 X122.996 Y156.004 E.86879
G1 X122.463 Y156.004 E.01673
G1 X102.872 Y136.413 E.86879
G1 X102.339 Y136.413 E.01673
G1 X121.929 Y156.004 E.86879
G1 X121.396 Y156.004 E.01673
G1 X101.806 Y136.413 E.86879
G1 X101.272 Y136.413 E.01673
G1 X120.863 Y156.004 E.86879
G1 X120.329 Y156.004 E.01673
M73 P2 R197
G1 X100.739 Y136.413 E.86879
G1 X100.206 Y136.413 E.01673
G1 X119.796 Y156.004 E.86879
G1 X119.262 Y156.004 E.01673
G1 X99.672 Y136.413 E.86879
G1 X99.139 Y136.413 E.01673
G1 X118.729 Y156.004 E.86879
G1 X118.196 Y156.004 E.01673
G1 X98.606 Y136.413 E.86879
G1 X98.072 Y136.413 E.01673
G1 X117.662 Y156.004 E.86879
G1 X117.129 Y156.004 E.01673
G1 X97.539 Y136.413 E.86879
G1 X97.006 Y136.413 E.01673
G1 X116.596 Y156.004 E.86879
G1 X116.062 Y156.004 E.01673
G1 X96.472 Y136.413 E.86879
G1 X95.939 Y136.413 E.01673
G1 X115.529 Y156.004 E.86879
G1 X114.996 Y156.004 E.01673
G1 X95.405 Y136.413 E.86879
G1 X94.872 Y136.413 E.01673
G1 X114.462 Y156.004 E.86879
G1 X113.929 Y156.004 E.01673
G1 X94.339 Y136.413 E.86879
G1 X93.805 Y136.413 E.01673
G1 X113.396 Y156.004 E.86879
G1 X112.862 Y156.004 E.01673
G1 X93.272 Y136.413 E.86879
G1 X92.739 Y136.413 E.01673
G1 X112.329 Y156.004 E.86879
G1 X111.796 Y156.004 E.01673
G1 X92.205 Y136.413 E.86879
G1 X91.672 Y136.413 E.01673
G1 X111.262 Y156.004 E.86879
G1 X110.729 Y156.004 E.01673
G1 X91.139 Y136.413 E.86879
G1 X90.605 Y136.413 E.01673
G1 X110.196 Y156.004 E.86879
G1 X109.662 Y156.004 E.01673
G1 X90.072 Y136.413 E.86879
G1 X89.539 Y136.413 E.01673
G1 X109.129 Y156.004 E.86879
G1 X108.596 Y156.004 E.01673
G1 X89.005 Y136.413 E.86879
G1 X88.472 Y136.413 E.01673
G1 X108.062 Y156.004 E.86879
G1 X107.529 Y156.004 E.01673
G1 X87.939 Y136.413 E.86879
G1 X87.405 Y136.413 E.01673
G1 X106.996 Y156.004 E.86879
G1 X106.462 Y156.004 E.01673
G1 X86.872 Y136.413 E.86879
G1 X86.339 Y136.413 E.01673
